symbols/web/sync_problem/materialsymbolsoutlined/sync_problem_wght200_48px.svg

<svg xmlns="http://www.w3.org/2000/svg" height="48" width="48"><path d="M23.3 26.7V15h1.55v11.7Zm.7 6.8q-.5 0-.9-.4t-.4-.95q0-.5.4-.9t.9-.4q.5 0 .9.4t.4.9q0 .55-.4.95-.4.4-.9.4Zm6.35-24.2h9.15v1.55h-6.55l2.1 2.1q2.6 2.45 3.725 5.25t1.125 5.6q0 4.75-2.675 8.625T30.2 38.15V36.5q3.75-1.65 5.95-5.1 2.2-3.45 2.2-7.6 0-2.65-.95-5.025-.95-2.375-3-4.375l-2.5-2.45v6.5h-1.55Zm-12.7 29.4H8.5v-1.55H15l-2.05-2.1q-2.5-2.55-3.675-5.3Q8.1 27 8.1 24.25q0-4.8 2.65-8.675Q13.4 11.7 17.85 9.9v1.6q-3.8 1.65-6 5.125t-2.2 7.625q0 2.6.95 4.975.95 2.375 3.05 4.375l2.5 2.45v-6.5h1.5Z"/></svg>

<svg xmlns="http://www.w3.org/2000/svg" height="48" width="48"><path d="M23.3 26.7V15H24.85V26.7ZM24 33.5Q23.5 33.5 23.1 33.1Q22.7 32.7 22.7 32.15Q22.7 31.65 23.1 31.25Q23.5 30.85 24 30.85Q24.5 30.85 24.9 31.25Q25.3 31.65 25.3 32.15Q25.3 32.7 24.9 33.1Q24.5 33.5 24 33.5ZM30.35 9.3H39.5V10.85H32.95L35.05 12.95Q37.65 15.4 38.775 18.2Q39.9 21 39.9 23.8Q39.9 28.55 37.225 32.425Q34.55 36.3 30.2 38.15V36.5Q33.95 34.85 36.15 31.4Q38.35 27.95 38.35 23.8Q38.35 21.15 37.4 18.775Q36.45 16.4 34.4 14.4L31.9 11.95V18.45H30.35ZM17.65 38.7H8.5V37.15H15L12.95 35.05Q10.45 32.5 9.275 29.75Q8.1 27 8.1 24.25Q8.1 19.45 10.75 15.575Q13.4 11.7 17.85 9.9V11.5Q14.05 13.15 11.85 16.625Q9.65 20.1 9.65 24.25Q9.65 26.85 10.6 29.225Q11.55 31.6 13.65 33.6L16.15 36.05V29.55H17.65Z"/></svg>
